svg/fluentui-system-icons/ic_fluent_document_search_24_filled.svg

<svg width="24" height="24" viewBox="0 0 24 24" fill="none" xmlns="http://www.w3.org/2000/svg">
<path d="M13 8V2H7C5.89543 2 5 2.89543 5 4V9.30269C5.88252 8.79218 6.90714 8.5 8 8.5C11.3137 8.5 14 11.1863 14 14.5C14 15.5847 13.7114 16.6036 13.2072 17.4824L16.7374 21.0126C17.0154 21.2905 17.1803 21.6387 17.2322 22H19C20.1046 22 21 21.1046 21 20V10H15C13.8954 10 13 9.10457 13 8ZM14.9697 22.7803C15.2626 23.0732 15.7374 23.0732 16.0303 22.7803C16.2414 22.5693 16.3003 22.2638 16.2073 22C16.1712 21.8976 16.1122 21.8015 16.0303 21.7197L11.9177 17.607C12.5953 16.7538 13 15.6742 13 14.5C13 13.1373 12.4548 11.9019 11.5707 11C10.6633 10.0743 9.3987 9.5 8 9.5C6.87439 9.5 5.83566 9.87194 5 10.4996C3.78555 11.4118 3 12.8642 3 14.5C3 17.2614 5.23858 19.5 8 19.5C9.04582 19.5 10.0166 19.1789 10.8193 18.6299L14.9697 22.7803ZM8 11C9.933 11 11.5 12.567 11.5 14.5C11.5 16.433 9.933 18 8 18C6.067 18 4.5 16.433 4.5 14.5C4.5 12.567 6.067 11 8 11ZM14.5 8V2.5L20.5 8.5H15C14.7239 8.5 14.5 8.27614 14.5 8Z" fill="#212121"/>
</svg>

<svg xmlns="http://www.w3.org/2000/svg" width="24" height="24"><path d="M13 8V2H7a2 2 0 0 0-2 2v5.303a6 6 0 0 1 8.207 8.18l3.53 3.53c.278.277.443.626.495.987H19a2 2 0 0 0 2-2V10h-6a2 2 0 0 1-2-2Zm1.97 14.78a.75.75 0 1 0 1.06-1.06l-4.112-4.113A4.978 4.978 0 0 0 13 14.5a4.984 4.984 0 0 0-1.43-3.5A4.985 4.985 0 0 0 8 9.5a4.978 4.978 0 0 0-3 1 5 5 0 0 0 5.82 8.13l4.15 4.15ZM8 11a3.5 3.5 0 1 1 0 7 3.5 3.5 0 0 1 0-7Zm6.5-3V2.5l6 6H15a.5.5 0 0 1-.5-.5Z"/></svg>
